packages/icons/src/envelope.svg

<svg width="24" height="24" viewBox="0 0 24 24" fill="none" xmlns="http://www.w3.org/2000/svg">
<path fill-rule="evenodd" clip-rule="evenodd" d="M20 4C21.0544 4 21.9182 4.81588 21.9945 5.85074L22 6V18C22 19.0544 21.1841 19.9182 20.1493 19.9945L20 20H4C2.94564 20 2.08183 19.1841 2.00549 18.1493L2 18V6C2 4.94564 2.81588 4.08183 3.85074 4.00549L4 4H20ZM20 6H4V18H20V6ZM17.5563 8.15061L18.4395 9.94502L11.9982 13.1155L5.60713 9.94356L6.49626 8.15207L12.001 10.884L17.5563 8.15061Z" fill="black"/>
</svg>

<svg xmlns="http://www.w3.org/2000/svg" width="24" height="24" fill="none" viewBox="0 0 24 24">
  <path fill="#000" fill-rule="evenodd" d="M20 4a2 2 0 0 1 1.994 1.85L22 6v12a2 2 0 0 1-1.85 1.994L20 20H4a2 2 0 0 1-1.995-1.85L2 18V6a2 2 0 0 1 1.85-1.995L4 4h16Zm0 2H4v12h16V6Zm-2.444 2.15.883 1.795-6.44 3.17-6.392-3.171.89-1.792L12 10.884l5.555-2.733Z" clip-rule="evenodd"/>
</svg>
